assets/img/icons/duotone-icons/Code/CMD.svg

<?xml version="1.0" encoding="UTF-8"?>
<svg width="24px" height="24px" viewBox="0 0 24 24" version="1.1" xmlns="http://www.w3.org/2000/svg" xmlns:xlink="http://www.w3.org/1999/xlink">
    <!-- Generator: Sketch 52.2 (67145) - http://www.bohemiancoding.com/sketch -->
    <title>Stockholm-icons / Code / CMD</title>
    <desc>Created with Sketch.</desc>
    <g id="Stockholm-icons-/-Code-/-CMD" stroke="none" stroke-width="1" fill="none" fill-rule="evenodd">
        <rect id="bound" x="0" y="0" width="24" height="24"></rect>
        <path d="M9,15 L7.5,15 C6.67157288,15 6,15.6715729 6,16.5 C6,17.3284271 6.67157288,18 7.5,18 C8.32842712,18 9,17.3284271 9,16.5 L9,15 Z M9,15 L9,9 L15,9 L15,15 L9,15 Z M15,16.5 C15,17.3284271 15.6715729,18 16.5,18 C17.3284271,18 18,17.3284271 18,16.5 C18,15.6715729 17.3284271,15 16.5,15 L15,15 L15,16.5 Z M16.5,9 C17.3284271,9 18,8.32842712 18,7.5 C18,6.67157288 17.3284271,6 16.5,6 C15.6715729,6 15,6.67157288 15,7.5 L15,9 L16.5,9 Z M9,7.5 C9,6.67157288 8.32842712,6 7.5,6 C6.67157288,6 6,6.67157288 6,7.5 C6,8.32842712 6.67157288,9 7.5,9 L9,9 L9,7.5 Z M11,13 L13,13 L13,11 L11,11 L11,13 Z M13,11 L13,7.5 C13,5.56700338 14.5670034,4 16.5,4 C18.4329966,4 20,5.56700338 20,7.5 C20,9.43299662 18.4329966,11 16.5,11 L13,11 Z M16.5,13 C18.4329966,13 20,14.5670034 20,16.5 C20,18.4329966 18.4329966,20 16.5,20 C14.5670034,20 13,18.4329966 13,16.5 L13,13 L16.5,13 Z M11,16.5 C11,18.4329966 9.43299662,20 7.5,20 C5.56700338,20 4,18.4329966 4,16.5 C4,14.5670034 5.56700338,13 7.5,13 L11,13 L11,16.5 Z M7.5,11 C5.56700338,11 4,9.43299662 4,7.5 C4,5.56700338 5.56700338,4 7.5,4 C9.43299662,4 11,5.56700338 11,7.5 L11,11 L7.5,11 Z" id="Path-2" fill="#335EEA"></path>
    </g>
</svg>

<svg width="24" height="24" viewBox="0 0 24 24" xmlns="http://www.w3.org/2000/svg"><g fill="none" fill-rule="evenodd"><path d="M0 0h24v24H0z"/><path d="M9 15H7.5A1.5 1.5 0 109 16.5V15zm0 0V9h6v6H9zm6 1.5a1.5 1.5 0 101.5-1.5H15v1.5zM16.5 9A1.5 1.5 0 1015 7.5V9h1.5zM9 7.5A1.5 1.5 0 107.5 9H9V7.5zm2 5.5h2v-2h-2v2zm2-2V7.5a3.5 3.5 0 113.5 3.5H13zm3.5 2a3.5 3.5 0 11-3.5 3.5V13h3.5zM11 16.5A3.5 3.5 0 117.5 13H11v3.5zM7.5 11A3.5 3.5 0 1111 7.5V11H7.5z" fill="#335EEA"/></g></svg>
